Numix/16/status/indicator-keyboard-Be-5.svg

<?xml version="1.0" encoding="UTF-8" standalone="no"?>
<svg
   xmlns:dc="http://purl.org/dc/elements/1.1/"
   xmlns:cc="http://creativecommons.org/ns#"
   xmlns:rdf="http://www.w3.org/1999/02/22-rdf-syntax-ns#"
   xmlns:svg="http://www.w3.org/2000/svg"
   xmlns="http://www.w3.org/2000/svg"
   xmlns:sodipodi="http://sodipodi.sourceforge.net/DTD/sodipodi-0.dtd"
   xmlns:inkscape="http://www.inkscape.org/namespaces/inkscape"
   viewBox="0 0 16 16"
   id="svg2"
   version="1.1"
   inkscape:version="0.91 r13725"
   sodipodi:docname="indicator-keyboard-Be-5.svg">
  <metadata
     id="metadata14">
    <rdf:RDF>
      <cc:Work
         rdf:about="">
        <dc:format>image/svg+xml</dc:format>
        <dc:type
           rdf:resource="http://purl.org/dc/dcmitype/StillImage" />
      </cc:Work>
    </rdf:RDF>
  </metadata>
  <defs
     id="defs12" />
  <sodipodi:namedview
     pagecolor="#ffffff"
     bordercolor="#666666"
     borderopacity="1"
     objecttolerance="10"
     gridtolerance="10"
     guidetolerance="10"
     inkscape:pageopacity="0"
     inkscape:pageshadow="2"
     inkscape:window-width="459"
     inkscape:window-height="369"
     id="namedview10"
     showgrid="false"
     inkscape:zoom="14.75"
     inkscape:cx="8"
     inkscape:cy="8"
     inkscape:window-x="65"
     inkscape:window-y="24"
     inkscape:window-maximized="0"
     inkscape:current-layer="svg2" />
  <path
     style="fill:#ececec;fill-opacity:1"
     d="M 1.5996094 0 C 0.71320937 2.9605947e-16 0 0.71320937 0 1.5996094 L 0 14.400391 C 2.9605947e-16 15.286791 0.71320937 16 1.5996094 16 L 14.400391 16 C 15.286791 16 16 15.286791 16 14.400391 L 16 1.5996094 C 16 0.71320937 15.286791 0 14.400391 0 L 1.5996094 0 z M 3.2402344 4.8046875 C 3.5762344 4.8046875 3.8953125 4.8327187 4.1953125 4.8867188 C 4.5013125 4.9407187 4.7680938 5.03025 4.9960938 5.15625 C 5.2240938 5.28225 5.4031562 5.4501562 5.5351562 5.6601562 C 5.6731563 5.8641563 5.7421875 6.1197812 5.7421875 6.4257812 C 5.7421875 6.7617812 5.6564219 7.0490625 5.4824219 7.2890625 C 5.3144219 7.5230625 5.084875 7.6853906 4.796875 7.7753906 C 4.976875 7.8173906 5.1429688 7.8770781 5.2929688 7.9550781 C 5.4429688 8.0330781 5.5754531 8.1357187 5.6894531 8.2617188 C 5.8034531 8.3817188 5.8892187 8.5309375 5.9492188 8.7109375 C 6.0152187 8.8849375 6.0488281 9.0957969 6.0488281 9.3417969 C 6.0488281 9.9297971 5.8137031 10.379406 5.3457031 10.691406 C 4.8777031 10.997406 4.1557344 11.150391 3.1777344 11.150391 C 3.0757344 11.150391 2.9563594 11.144813 2.8183594 11.132812 C 2.6863594 11.126813 2.5482969 11.113703 2.4042969 11.095703 C 2.2662969 11.083703 2.1338125 11.068781 2.0078125 11.050781 C 1.8818125 11.026781 1.7735937 11.002516 1.6835938 10.978516 L 1.6835938 4.9765625 C 1.7915937 4.9465625 1.9109688 4.9222969 2.0429688 4.9042969 C 2.1749688 4.8802969 2.3112187 4.8616094 2.4492188 4.8496094 C 2.5932188 4.8316094 2.7312812 4.8204531 2.8632812 4.8144531 C 3.0012812 4.8084531 3.1262344 4.8046875 3.2402344 4.8046875 z M 3.2402344 5.3261719 C 3.0182344 5.3261719 2.8298281 5.3337031 2.6738281 5.3457031 C 2.5238281 5.3577031 2.3969219 5.372625 2.2949219 5.390625 L 2.2949219 7.5859375 L 3.484375 7.5859375 C 3.706375 7.5859375 3.9152813 7.5710156 4.1132812 7.5410156 C 4.3112812 7.5050156 4.4829531 7.4453281 4.6269531 7.3613281 C 4.7769531 7.2713281 4.8945156 7.1537656 4.9785156 7.0097656 C 5.0625156 6.8597656 5.1035156 6.6713594 5.1035156 6.4433594 C 5.1035156 6.2393594 5.05875 6.0676875 4.96875 5.9296875 C 4.87875 5.7856875 4.7500313 5.668125 4.5820312 5.578125 C 4.4200313 5.488125 4.2240937 5.426625 3.9960938 5.390625 C 3.7680937 5.348625 3.5162344 5.3261719 3.2402344 5.3261719 z M 9.0800781 6.3359375 C 9.6500781 6.3359375 10.103453 6.5205781 10.439453 6.8925781 C 10.781453 7.2645781 10.953125 7.8373281 10.953125 8.6113281 C 10.953125 8.6593281 10.949359 8.7078594 10.943359 8.7558594 C 10.943359 8.8038594 10.939594 8.848625 10.933594 8.890625 L 7.6679688 8.890625 C 7.6859687 9.460625 7.8258437 9.8990779 8.0898438 10.205078 C 8.3538437 10.511078 8.7736094 10.664062 9.3496094 10.664062 C 9.6676094 10.664062 9.9194687 10.634219 10.105469 10.574219 C 10.291469 10.514219 10.427719 10.463875 10.511719 10.421875 L 10.619141 10.925781 C 10.535141 10.973781 10.376578 11.029703 10.142578 11.095703 C 9.9145781 11.161703 9.6440312 11.195312 9.3320312 11.195312 C 8.9240313 11.195312 8.5770625 11.135625 8.2890625 11.015625 C 8.0010625 10.895625 7.764125 10.727719 7.578125 10.511719 C 7.392125 10.295719 7.255875 10.040094 7.171875 9.7460938 C 7.087875 9.4460938 7.046875 9.119625 7.046875 8.765625 C 7.046875 8.357625 7.1027969 8.003125 7.2167969 7.703125 C 7.3367969 7.397125 7.4897813 7.1415 7.6757812 6.9375 C 7.8677812 6.7335 8.0842188 6.5842813 8.3242188 6.4882812 C 8.5702188 6.3862812 8.8220781 6.3359375 9.0800781 6.3359375 z M 9.0898438 6.8574219 C 8.8798438 6.8574219 8.6894844 6.8984219 8.5214844 6.9824219 C 8.3594844 7.0664219 8.2158437 7.1802188 8.0898438 7.3242188 C 7.9698437 7.4622188 7.8747344 7.6245469 7.8027344 7.8105469 C 7.7367344 7.9965469 7.6975469 8.1924844 7.6855469 8.3964844 L 10.349609 8.3964844 C 10.337609 7.9104844 10.223812 7.5317188 10.007812 7.2617188 C 9.7918124 6.9917187 9.4858437 6.8574219 9.0898438 6.8574219 z M 2.2949219 8.1074219 L 2.2949219 10.564453 C 2.3849219 10.576453 2.5211719 10.591375 2.7011719 10.609375 C 2.8811719 10.621375 3.064 10.628906 3.25 10.628906 C 3.526 10.628906 3.7927812 10.610219 4.0507812 10.574219 C 4.3147813 10.538219 4.5461406 10.472953 4.7441406 10.376953 C 4.9421406 10.280953 5.1007031 10.148469 5.2207031 9.9804688 C 5.3407031 9.8124687 5.4003906 9.5960312 5.4003906 9.3320312 C 5.4003906 9.0920313 5.3593906 8.8942813 5.2753906 8.7382812 C 5.1913906 8.5762813 5.0700625 8.449375 4.9140625 8.359375 C 4.7580625 8.263375 4.5658906 8.1981094 4.3378906 8.1621094 C 4.1158906 8.1261094 3.8677969 8.1074219 3.5917969 8.1074219 L 2.2949219 8.1074219 z M 12.351562 8.8417969 L 14.175781 8.8417969 L 14.175781 9.1757812 L 12.683594 9.1757812 C 12.67966 9.2498812 12.673782 9.3458906 12.666016 9.4628906 C 12.658216 9.5798906 12.650378 9.6994188 12.642578 9.8242188 C 12.634778 9.9451188 12.624981 10.062681 12.613281 10.175781 C 12.601581 10.288881 12.591784 10.379012 12.583984 10.445312 C 12.884284 10.453112 13.144881 10.490341 13.363281 10.556641 C 13.581681 10.622941 13.759991 10.711119 13.900391 10.824219 C 14.040791 10.937319 14.144637 11.074475 14.210938 11.234375 C 14.281137 11.394275 14.316406 11.572578 14.316406 11.767578 C 14.316406 11.939178 14.287016 12.097894 14.228516 12.246094 C 14.173916 12.394294 14.087703 12.523613 13.970703 12.632812 C 13.853703 12.742012 13.706744 12.828225 13.527344 12.890625 C 13.347944 12.953025 13.134372 12.984375 12.888672 12.984375 C 12.763872 12.984375 12.646309 12.974578 12.537109 12.955078 C 12.431809 12.939478 12.337753 12.919884 12.251953 12.896484 C 12.170053 12.873084 12.099516 12.849572 12.041016 12.826172 C 11.982516 12.802772 11.939409 12.783178 11.912109 12.767578 L 12.011719 12.427734 C 12.035119 12.443334 12.074306 12.462928 12.128906 12.486328 C 12.187406 12.509728 12.254025 12.533241 12.328125 12.556641 C 12.406125 12.576141 12.490384 12.593775 12.583984 12.609375 C 12.681484 12.624975 12.783372 12.632812 12.888672 12.632812 C 13.083672 12.632812 13.2463 12.611259 13.375 12.568359 C 13.5076 12.521559 13.611453 12.458859 13.689453 12.380859 C 13.767453 12.302859 13.822316 12.212728 13.853516 12.111328 C 13.888616 12.006028 13.90625 11.894337 13.90625 11.773438 C 13.90625 11.617437 13.880778 11.476362 13.830078 11.351562 C 13.779378 11.226762 13.6912 11.120956 13.5625 11.035156 C 13.4338 10.949356 13.259416 10.884697 13.041016 10.841797 C 12.822616 10.794997 12.546338 10.771484 12.210938 10.771484 C 12.234337 10.572584 12.253931 10.392316 12.269531 10.228516 C 12.285131 10.060816 12.298847 9.9001469 12.310547 9.7480469 C 12.322247 9.5920469 12.330084 9.4431281 12.333984 9.2988281 C 12.341784 9.1506281 12.347663 8.9977969 12.351562 8.8417969 z "
     id="path4" />
</svg>

<svg xmlns="http://www.w3.org/2000/svg" viewBox="0 0 16 16">
 <path d="m 1.6 0 c -0.886 0 -1.6 0.713 -1.6 1.6 l 0 12.801 c 0 0.886 0.713 1.6 1.6 1.6 l 12.801 0 c 0.886 0 1.6 -0.713 1.6 -1.6 l 0 -12.801 c 0 -0.886 -0.713 -1.6 -1.6 -1.6 l -12.801 0 z m 1.641 4.805 c 0.336 0 0.655 0.028 0.955 0.082 c 0.306 0.054 0.573 0.144 0.801 0.27 c 0.228 0.126 0.407 0.294 0.539 0.504 c 0.138 0.204 0.207 0.46 0.207 0.766 c 0 0.336 -0.086 0.623 -0.26 0.863 c -0.168 0.234 -0.398 0.396 -0.686 0.486 c 0.18 0.042 0.346 0.102 0.496 0.18 c 0.15 0.078 0.282 0.181 0.396 0.307 c 0.114 0.12 0.2 0.269 0.26 0.449 c 0.066 0.174 0.1 0.385 0.1 0.631 c 0 0.588 -0.235 1.038 -0.703 1.35 c -0.468 0.306 -1.19 0.459 -2.168 0.459 c -0.102 0 -0.221 -0.006 -0.359 -0.018 c -0.132 -0.006 -0.27 -0.019 -0.414 -0.037 c -0.138 -0.012 -0.27 -0.027 -0.396 -0.045 c -0.126 -0.024 -0.234 -0.048 -0.324 -0.072 l 0 -6 c 0.108 -0.03 0.227 -0.054 0.359 -0.072 c 0.132 -0.024 0.268 -0.043 0.406 -0.055 c 0.144 -0.018 0.282 -0.029 0.414 -0.035 c 0.138 -0.006 0.263 -0.01 0.377 -0.01 z m 0 0.521 c -0.222 0 -0.41 0.008 -0.566 0.02 c -0.15 0.012 -0.277 0.027 -0.379 0.045 l 0 2.195 l 1.189 0 c 0.222 0 0.431 -0.015 0.629 -0.045 c 0.198 -0.036 0.37 -0.096 0.514 -0.18 c 0.15 -0.09 0.268 -0.208 0.352 -0.352 c 0.084 -0.15 0.125 -0.338 0.125 -0.566 c 0 -0.204 -0.045 -0.376 -0.135 -0.514 c -0.09 -0.144 -0.219 -0.262 -0.387 -0.352 c -0.162 -0.09 -0.358 -0.152 -0.586 -0.188 c -0.228 -0.042 -0.48 -0.064 -0.756 -0.064 z m 5.84 1.01 c 0.57 0 1.023 0.185 1.359 0.557 c 0.342 0.372 0.514 0.945 0.514 1.719 c 0 0.048 -0.004 0.097 -0.01 0.145 c 0 0.048 -0.004 0.093 -0.01 0.135 l -3.266 0 c 0.018 0.57 0.158 1.01 0.422 1.314 c 0.264 0.306 0.684 0.459 1.26 0.459 c 0.318 0 0.57 -0.03 0.756 -0.09 c 0.186 -0.06 0.322 -0.11 0.406 -0.152 l 0.107 0.504 c -0.084 0.048 -0.243 0.104 -0.477 0.17 c -0.228 0.066 -0.499 0.1 -0.811 0.1 c -0.408 0 -0.755 -0.06 -1.043 -0.18 c -0.288 -0.12 -0.525 -0.288 -0.711 -0.504 c -0.186 -0.216 -0.322 -0.472 -0.406 -0.766 c -0.084 -0.3 -0.125 -0.626 -0.125 -0.98 c 0 -0.408 0.056 -0.762 0.17 -1.063 c 0.12 -0.306 0.273 -0.562 0.459 -0.766 c 0.192 -0.204 0.408 -0.353 0.648 -0.449 c 0.246 -0.102 0.498 -0.152 0.756 -0.152 z m 0.01 0.521 c -0.21 0 -0.4 0.041 -0.568 0.125 c -0.162 0.084 -0.306 0.198 -0.432 0.342 c -0.12 0.138 -0.215 0.3 -0.287 0.486 c -0.066 0.186 -0.105 0.382 -0.117 0.586 l 2.664 0 c -0.012 -0.486 -0.126 -0.865 -0.342 -1.135 c -0.216 -0.27 -0.522 -0.404 -0.918 -0.404 z m -6.795 1.25 l 0 2.457 c 0.09 0.012 0.226 0.027 0.406 0.045 c 0.18 0.012 0.363 0.02 0.549 0.02 c 0.276 0 0.543 -0.019 0.801 -0.055 c 0.264 -0.036 0.495 -0.101 0.693 -0.197 c 0.198 -0.096 0.357 -0.228 0.477 -0.396 c 0.12 -0.168 0.18 -0.384 0.18 -0.648 c 0 -0.24 -0.041 -0.438 -0.125 -0.594 c -0.084 -0.162 -0.205 -0.289 -0.361 -0.379 c -0.156 -0.096 -0.348 -0.161 -0.576 -0.197 c -0.222 -0.036 -0.47 -0.055 -0.746 -0.055 l -1.297 0 z m 10.06 0.734 l 1.824 0 l 0 0.334 l -1.492 0 c -0.004 0.074 -0.01 0.17 -0.018 0.287 c -0.008 0.117 -0.016 0.237 -0.023 0.361 c -0.008 0.121 -0.018 0.238 -0.029 0.352 c -0.012 0.113 -0.021 0.203 -0.029 0.27 c 0.3 0.008 0.561 0.045 0.779 0.111 c 0.218 0.066 0.397 0.154 0.537 0.268 c 0.14 0.113 0.244 0.25 0.311 0.41 c 0.07 0.16 0.105 0.338 0.105 0.533 c 0 0.172 -0.029 0.33 -0.088 0.479 c -0.055 0.148 -0.141 0.278 -0.258 0.387 c -0.117 0.109 -0.264 0.195 -0.443 0.258 c -0.179 0.062 -0.393 0.094 -0.639 0.094 c -0.125 0 -0.242 -0.01 -0.352 -0.029 c -0.105 -0.016 -0.199 -0.035 -0.285 -0.059 c -0.082 -0.023 -0.152 -0.047 -0.211 -0.07 c -0.059 -0.023 -0.102 -0.043 -0.129 -0.059 l 0.1 -0.34 c 0.023 0.016 0.063 0.035 0.117 0.059 c 0.058 0.023 0.125 0.047 0.199 0.07 c 0.078 0.019 0.162 0.037 0.256 0.053 c 0.098 0.016 0.199 0.023 0.305 0.023 c 0.195 0 0.358 -0.022 0.486 -0.064 c 0.133 -0.047 0.236 -0.109 0.314 -0.188 c 0.078 -0.078 0.133 -0.168 0.164 -0.27 c 0.035 -0.105 0.053 -0.217 0.053 -0.338 c 0 -0.156 -0.025 -0.297 -0.076 -0.422 c -0.051 -0.125 -0.139 -0.231 -0.268 -0.316 c -0.129 -0.086 -0.303 -0.15 -0.521 -0.193 c -0.218 -0.047 -0.495 -0.07 -0.83 -0.07 c 0.023 -0.199 0.043 -0.379 0.059 -0.543 c 0.016 -0.168 0.029 -0.328 0.041 -0.48 c 0.012 -0.156 0.02 -0.305 0.023 -0.449 c 0.008 -0.148 0.014 -0.301 0.018 -0.457 z" style="fill:#ececec;fill-opacity:1"/>
</svg>
